src/assets/filled/Maximize21.svg

<?xml version="1.0" encoding="UTF-8"?>
<svg width="24" height="24" viewBox="0 0 24 24" xmlns="http://www.w3.org/2000/svg">
 <path d="M11 16.15V18.85C11 21.1 10.1 22 7.85 22H5.15C2.9 22 2 21.1 2 18.85V16.15C2 13.9 2.9 13 5.15 13H7.85C10.1 13 11 13.9 11 16.15Z"/>
 <path d="m16.48 2h-7.96c-3.05 0-5.52 2.47-5.52 5.52v2.98c0 0.55 0.45 1 1 1h4.5c2.21 0 4 1.79 4 4v4.5c0 0.55 0.45 1 1 1h2.98c3.45 0 5.52-2.06 5.52-5.52v-7.96c0-3.05-2.47-5.52-5.52-5.52zm2.28 7.99c0 0.41-0.34 0.75-0.75 0.75s-0.75-0.34-0.75-0.75v-2.2l-3.73 3.74c-0.15 0.15-0.34 0.22-0.53 0.22s-0.38-0.07-0.53-0.22c-0.29-0.29-0.29-0.77 0-1.06l3.73-3.75h-2.2c-0.42 0-0.75-0.33-0.75-0.75 0-0.41 0.33-0.75 0.75-0.75h4.01c0.09 0 0.18 0.03 0.26 0.06 0.03 0.01 0.05 0.02 0.07 0.03 0.06 0.03 0.11 0.06 0.16 0.11 0.02 0.01 0.04 0.03 0.06 0.05 0.05 0.06 0.09 0.12 0.13 0.19 0 0.01 0.01 0.02 0.01 0.03 0.04 0.08 0.05 0.17 0.05 0.26 0.01 0.01 0.01 0.01 0.01 0.02v4.02z"/>
</svg>

<svg width="24" height="24" viewBox="0 0 24 24"  xmlns="http://www.w3.org/2000/svg">
<path d="M11 16.15V18.85C11 21.1 10.1 22 7.85 22H5.15C2.9 22 2 21.1 2 18.85V16.15C2 13.9 2.9 13 5.15 13H7.85C10.1 13 11 13.9 11 16.15Z" />
<path d="M16.48 2H8.52C5.47 2 3 4.47 3 7.52V10.5C3 11.05 3.45 11.5 4 11.5H8.5C10.71 11.5 12.5 13.29 12.5 15.5V20C12.5 20.55 12.95 21 13.5 21H16.48C19.93 21 22 18.94 22 15.48V7.52C22 4.47 19.53 2 16.48 2ZM18.76 9.99C18.76 10.4 18.42 10.74 18.01 10.74C17.6 10.74 17.26 10.4 17.26 9.99V7.79L13.53 11.53C13.38 11.68 13.19 11.75 13 11.75C12.81 11.75 12.62 11.68 12.47 11.53C12.18 11.24 12.18 10.76 12.47 10.47L16.2 6.72H14C13.58 6.72 13.25 6.39 13.25 5.97C13.25 5.56 13.58 5.22 14 5.22H18.01C18.1 5.22 18.19 5.25 18.27 5.28C18.3 5.29 18.32 5.3 18.34 5.31C18.4 5.34 18.45 5.37 18.5 5.42C18.52 5.43 18.54 5.45 18.56 5.47C18.61 5.53 18.65 5.59 18.69 5.66C18.69 5.67 18.7 5.68 18.7 5.69C18.74 5.77 18.75 5.86 18.75 5.95C18.76 5.96 18.76 5.96 18.76 5.97V9.99Z" />
</svg>
